X: 23381
T: Lemmy Brazil's
R: hornpipe
M: 4/4
K: Dmajor
|:A3/2G/|F2 A2 (3BcB A2|d3/2e/f3/2d/ B2 A3/2G/|F3/2A/d3/2A/ B3/2c/d3/2f/|e2 e2 e2 A3/2G/|
F2 A2 (3BcB A2|d3/2e/f3/2d/ B2 A3/2G/|F3/2A/d3/2A/ B3/2c/d3/2f/|e2 e2 d2:|
|:f3/2g/|a3/2f/d3/2f/ a3/2f/ d2|d3/2e/ (3fed B2 A3/2G/|F3/2A/d3/2A/ B3/2c/d3/2f/|e2 e2 e2 f3/2g/|
a3/2f/d3/2f/ a3/2f/ d2|d3/2e/ (3 fed B2 A3/2G/|F3/2A/d3/2A/ B3/2c/d3/2f/|e2 e2 d2:|

